X:1
T:Baytown, 11.11.11 D
T:Baytown, 11.11.11 D
T:William Fiske Sherwin, 1873
T:Public Domain Courtesy of the Cyber Hymnal™
C:William Fiske Sherwin, 1873
Z:Public Domain
Z:Courtesy of the Cyber Hymnal™
%%score ( 1 2 ) ( 3 4 )
L:1/8
Q:1/4=81
M:2/4
K:D
V:1 treble 
V:2 treble 
V:3 bass 
V:4 bass 
V:1
 [FA][DF] [Fd][GB] | [FA]2 [DF]2 | [GB][FA] [DF]D | [CE]4 | [DF][EG] [FA][GB] | [FA]2 [Fd]2 | %6
 [Ec][EB] [EA][D^G] | A4 | [FA][DF] [Fd][Ac] | [GB]2 [GB]2 | ^G[GB] [Ge][Bd] | c4 | %12
 [Fd][Af] [Ge][Fd] | [Ac][GB] [FA][EG] | [DF]2 [CE]2 | D4 | AA AA | [Fd]2 [FA]2 | %18
 [Fd][Ec] [Fd][Ge] | [Af]4 | [Ge][Bd] [Ac][GB] | [FA][EG] [DF][DA] | [Fd]2 [Ec]2 | [Fd]4 |] %24
V:2
 x4 | x4 | x3 D | x4 | x4 | x4 | x4 | (CE G2) | x4 | x4 | ^G x3 | (A2 G2) | x4 | x4 | x4 | D4 | %16
 AA AA | x4 | x4 | x4 | x4 | x4 | x4 | x4 |] %24
V:3
 [D,A,][D,A,] [D,A,][D,D] | [D,D]2 [D,A,]2 | [D,D][D,D] [D,A,][D,F,] | [A,,A,]4 | %4
 [D,A,][D,A,] [D,D][D,D] | [D,D]2 [D,A,]2 | [E,A,][E,D] [E,C][E,B,] | [A,,A,]4 | %8
 [D,A,][D,A,] [D,A,][F,D] | [G,D]2 [G,D]2 | [E,E][E,E] [E,E][^G,E] | [A,E]4 | %12
 [D,D][D,D] [C,A,][D,D] | [G,D][G,D] [G,D][G,B,] | A,2 [A,,G,]2 | [D,F,]4 | A,A, A,A, | %17
 [D,A,]2 [D,D]2 | [D,A,][D,A,] [D,A,][D,A,] | [D,D]4 | [G,B,][G,B,] [G,C][G,D] | %21
 [D,D][D,A,] [D,A,][F,D] | A,2 [A,,A,]2 | [D,A,]4 |] %24
V:4
 x4 | x4 | x4 | x4 | x4 | x4 | x4 | x4 | x4 | x4 | x4 | x4 | x4 | x4 | A,2 x2 | x4 | A,A, A,A, | %17
 x4 | x4 | x4 | x4 | x4 | A,2 x2 | x4 |] %24

